svg/color/cytr.svg

<?xml version="1.0" encoding="UTF-8" ?>
<!DOCTYPE svg PUBLIC "-//W3C//DTD SVG 1.1//EN" "http://www.w3.org/Graphics/SVG/1.1/DTD/svg11.dtd">
<svg width="250pt" height="250pt" viewBox="0 0 250 250" version="1.1" xmlns="http://www.w3.org/2000/svg">
<g id="#ffffffff">
<path fill="#ffffff" opacity="1.00" d=" M 0.00 0.00 L 250.00 0.00 L 250.00 250.00 L 0.00 250.00 L 0.00 0.00 M 145.61 8.39 C 123.89 14.26 104.27 28.71 93.36 48.53 C 92.12 50.48 91.35 53.13 88.97 53.98 C 79.99 57.74 71.32 62.62 64.04 69.13 C 51.13 79.60 41.41 94.00 36.29 109.80 C 29.48 126.70 29.96 145.68 33.60 163.29 L 34.01 163.17 C 39.25 184.03 52.16 202.97 69.96 215.08 C 69.33 213.40 68.62 211.75 67.74 210.19 C 63.05 202.09 59.14 193.58 55.15 185.12 C 58.70 189.17 61.73 193.65 65.52 197.48 C 71.77 204.15 79.48 209.32 87.63 213.38 C 98.40 218.20 110.07 221.98 122.00 221.59 C 149.15 222.75 175.78 208.37 191.10 186.17 C 189.53 191.80 186.26 196.69 183.93 202.00 C 181.93 206.49 178.98 210.47 177.06 215.00 C 181.08 213.33 184.02 210.04 187.09 207.08 C 190.94 203.25 195.00 199.55 198.07 195.03 C 203.20 187.45 208.08 179.55 210.96 170.81 C 217.35 153.10 217.65 133.50 213.07 115.33 C 207.46 96.89 197.02 79.44 181.51 67.70 C 176.63 63.63 171.28 60.18 165.62 57.31 C 161.33 54.98 156.59 53.65 152.34 51.25 C 154.03 44.47 157.44 38.37 160.79 32.31 C 150.84 34.92 141.89 40.19 133.66 46.22 C 136.41 35.74 142.59 26.60 148.95 17.97 C 152.12 13.39 156.31 9.67 159.73 5.29 C 155.00 6.21 150.21 6.89 145.61 8.39 M 83.85 227.23 C 86.16 231.18 90.23 233.60 94.02 235.94 C 106.01 243.04 120.55 245.32 134.22 242.98 C 145.27 240.63 156.52 235.93 164.03 227.24 C 161.15 227.73 158.40 228.72 155.65 229.70 C 140.16 235.20 123.22 236.63 107.03 233.73 C 99.04 232.58 91.54 229.50 83.85 227.23 Z" />
<path fill="#ffffff" opacity="1.00" d=" M 97.04 96.07 C 110.05 87.90 126.82 86.58 141.20 91.70 C 153.00 95.96 162.96 104.80 168.89 115.82 C 172.31 123.07 174.78 130.92 174.85 139.00 C 175.09 145.40 173.41 151.64 171.86 157.80 C 166.77 170.04 157.61 180.89 145.37 186.39 C 134.33 191.73 121.38 192.43 109.59 189.36 C 94.85 185.13 82.31 173.96 76.38 159.82 C 72.12 149.69 71.36 138.19 73.86 127.52 C 75.22 121.57 78.21 116.21 80.97 110.83 C 85.55 105.14 90.66 99.76 97.04 96.07 M 99.65 138.98 C 99.21 148.38 104.94 157.90 113.69 161.54 C 120.33 164.75 128.51 164.43 134.97 160.94 C 146.20 155.30 150.83 140.05 144.84 129.04 C 142.62 130.63 140.55 132.53 137.97 133.50 C 133.13 134.32 128.06 129.97 128.55 124.98 C 128.17 121.84 130.93 119.86 132.79 117.81 C 128.27 115.60 123.05 116.14 118.19 116.51 C 107.99 118.82 99.91 128.48 99.65 138.98 Z" />
</g>
<g id="#b4172cff">
<path fill="#b4172c" opacity="1.00" d=" M 145.61 8.39 C 150.21 6.89 155.00 6.21 159.73 5.29 C 156.31 9.67 152.12 13.39 148.95 17.97 C 142.59 26.60 136.41 35.74 133.66 46.22 C 141.89 40.19 150.84 34.92 160.79 32.31 C 157.44 38.37 154.03 44.47 152.34 51.25 C 156.59 53.65 161.33 54.98 165.62 57.31 C 171.28 60.18 176.63 63.63 181.51 67.70 C 181.56 68.79 181.61 69.88 181.67 70.97 C 180.13 71.06 178.59 71.16 177.05 71.21 C 140.54 71.30 104.02 71.00 67.53 71.38 C 66.02 71.36 65.14 69.93 64.04 69.13 C 71.32 62.62 79.99 57.74 88.97 53.98 C 91.35 53.13 92.12 50.48 93.36 48.53 C 104.27 28.71 123.89 14.26 145.61 8.39 Z" />
</g>
<g id="#c52639ff">
<path fill="#c52639" opacity="1.00" d=" M 181.51 67.70 C 197.02 79.44 207.46 96.89 213.07 115.33 C 210.75 116.27 208.32 116.98 205.80 117.03 C 196.32 117.36 186.82 117.40 177.35 116.94 C 174.52 116.89 171.88 115.87 169.28 114.86 C 169.19 115.10 168.99 115.58 168.89 115.82 C 162.96 104.80 153.00 95.96 141.20 91.70 C 126.82 86.58 110.05 87.90 97.04 96.07 C 90.66 99.76 85.55 105.14 80.97 110.83 C 78.61 112.39 76.62 114.41 74.48 116.22 C 71.41 117.03 68.15 116.24 65.01 116.30 C 56.64 115.83 48.07 117.34 39.86 115.26 C 37.29 114.77 37.11 111.78 36.29 109.80 C 41.41 94.00 51.13 79.60 64.04 69.13 C 65.14 69.93 66.02 71.36 67.53 71.38 C 104.02 71.00 140.54 71.30 177.05 71.21 C 178.59 71.16 180.13 71.06 181.67 70.97 C 181.61 69.88 181.56 68.79 181.51 67.70 Z" />
</g>
<g id="#d93748ff">
<path fill="#d93748" opacity="1.00" d=" M 33.60 163.29 C 29.96 145.68 29.48 126.70 36.29 109.80 C 37.11 111.78 37.29 114.77 39.86 115.26 C 48.07 117.34 56.64 115.83 65.01 116.30 C 68.15 116.24 71.41 117.03 74.48 116.22 C 76.62 114.41 78.61 112.39 80.97 110.83 C 78.21 116.21 75.22 121.57 73.86 127.52 C 71.36 138.19 72.12 149.69 76.38 159.82 C 75.80 161.24 75.23 162.66 74.67 164.08 C 71.41 164.16 68.16 163.88 64.92 163.52 C 58.96 162.89 52.97 163.69 47.00 163.14 C 42.69 162.85 38.22 161.63 34.01 163.17 L 33.60 163.29 Z" />
<path fill="#d93748" opacity="1.00" d=" M 169.28 114.86 C 171.88 115.87 174.52 116.89 177.35 116.94 C 186.82 117.40 196.32 117.36 205.80 117.03 C 208.32 116.98 210.75 116.27 213.07 115.33 C 217.65 133.50 217.35 153.10 210.96 170.81 C 210.65 168.96 210.17 167.15 209.74 165.34 C 198.81 164.98 187.87 165.38 176.93 165.31 C 175.34 165.12 173.50 165.37 172.13 164.43 C 171.31 162.31 171.71 159.99 171.86 157.80 C 173.41 151.64 175.09 145.40 174.85 139.00 C 174.78 130.92 172.31 123.07 168.89 115.82 C 168.99 115.58 169.19 115.10 169.28 114.86 Z" />
</g>
<g id="#eb4857ff">
<path fill="#eb4857" opacity="1.00" d=" M 99.65 138.98 C 99.91 128.48 107.99 118.82 118.19 116.51 C 123.05 116.14 128.27 115.60 132.79 117.81 C 130.93 119.86 128.17 121.84 128.55 124.98 C 128.06 129.97 133.13 134.32 137.97 133.50 C 140.55 132.53 142.62 130.63 144.84 129.04 C 150.83 140.05 146.20 155.30 134.97 160.94 C 128.51 164.43 120.33 164.75 113.69 161.54 C 104.94 157.90 99.21 148.38 99.65 138.98 Z" />
<path fill="#eb4857" opacity="1.00" d=" M 145.37 186.39 C 157.61 180.89 166.77 170.04 171.86 157.80 C 171.71 159.99 171.31 162.31 172.13 164.43 C 173.50 165.37 175.34 165.12 176.93 165.31 C 187.87 165.38 198.81 164.98 209.74 165.34 C 210.17 167.15 210.65 168.96 210.96 170.81 C 208.08 179.55 203.20 187.45 198.07 195.03 C 195.00 199.55 190.94 203.25 187.09 207.08 C 184.02 210.04 181.08 213.33 177.06 215.00 C 178.98 210.47 181.93 206.49 183.93 202.00 C 186.26 196.69 189.53 191.80 191.10 186.17 C 175.78 208.37 149.15 222.75 122.00 221.59 C 110.07 221.98 98.40 218.20 87.63 213.38 C 79.48 209.32 71.77 204.15 65.52 197.48 C 61.73 193.65 58.70 189.17 55.15 185.12 C 59.14 193.58 63.05 202.09 67.74 210.19 C 68.62 211.75 69.33 213.40 69.96 215.08 C 52.16 202.97 39.25 184.03 34.01 163.17 C 38.22 161.63 42.69 162.85 47.00 163.14 C 52.97 163.69 58.96 162.89 64.92 163.52 C 68.16 163.88 71.41 164.16 74.67 164.08 C 75.23 162.66 75.80 161.24 76.38 159.82 C 82.31 173.96 94.85 185.13 109.59 189.36 C 121.38 192.43 134.33 191.73 145.37 186.39 Z" />
<path fill="#eb4857" opacity="1.00" d=" M 83.85 227.23 C 91.54 229.50 99.04 232.58 107.03 233.73 C 123.22 236.63 140.16 235.20 155.65 229.70 C 158.40 228.72 161.15 227.73 164.03 227.24 C 156.52 235.93 145.27 240.63 134.22 242.98 C 120.55 245.32 106.01 243.04 94.02 235.94 C 90.23 233.60 86.16 231.18 83.85 227.23 Z" />
</g>
</svg>

<?xml version="1.0" encoding="utf-8"?>
<!-- Generator: Adobe Illustrator 26.0.3, SVG Export Plug-In . SVG Version: 6.00 Build 0)  -->
<svg version="1.1" id="Layer_1" xmlns="http://www.w3.org/2000/svg" xmlns:xlink="http://www.w3.org/1999/xlink" x="0px" y="0px"
	 viewBox="0 0 250 250" style="enable-background:new 0 0 250 250;" xml:space="preserve">
<style type="text/css">
	.st0{fill:#FFFFFF;}
	.st1{fill:#B4172C;}
	.st2{fill:#C52639;}
	.st3{fill:#D93748;}
	.st4{fill:#EB4857;}
</style>
<g id="_x23_ffffffff">
	<path class="st0" d="M97,96.1c13-8.2,29.8-9.5,44.2-4.4c11.8,4.3,21.8,13.1,27.7,24.1c3.4,7.2,5.9,15.1,6,23.2
		c0.2,6.4-1.4,12.6-3,18.8c-5.1,12.2-14.2,23.1-26.5,28.6c-11,5.3-24,6-35.8,3c-14.7-4.2-27.3-15.4-33.2-29.5
		c-4.3-10.1-5-21.6-2.5-32.3c1.4-5.9,4.3-11.3,7.1-16.7C85.6,105.1,90.7,99.8,97,96.1 M99.7,139c-0.4,9.4,5.3,18.9,14,22.6
		c6.6,3.2,14.8,2.9,21.3-0.6c11.2-5.6,15.9-20.9,9.9-31.9c-2.2,1.6-4.3,3.5-6.9,4.5c-4.8,0.8-9.9-3.5-9.4-8.5
		c-0.4-3.1,2.4-5.1,4.2-7.2c-4.5-2.2-9.7-1.7-14.6-1.3C108,118.8,99.9,128.5,99.7,139z"/>
</g>
<g id="_x23_b4172cff">
	<path class="st1" d="M145.6,8.4c4.6-1.5,9.4-2.2,14.1-3.1c-3.4,4.4-7.6,8.1-10.8,12.7c-6.4,8.6-12.5,17.8-15.3,28.3
		c8.2-6,17.2-11.3,27.1-13.9c-3.3,6.1-6.8,12.2-8.4,18.9c4.2,2.4,9,3.7,13.3,6.1c5.7,2.9,11,6.3,15.9,10.4c0.1,1.1,0.1,2.2,0.2,3.3
		c-1.5,0.1-3.1,0.2-4.6,0.2c-36.5,0.1-73-0.2-109.5,0.2c-1.5,0-2.4-1.4-3.5-2.2C71.3,62.6,80,57.7,89,54c2.4-0.8,3.2-3.5,4.4-5.5
		C104.3,28.7,123.9,14.3,145.6,8.4z"/>
</g>
<g id="_x23_c52639ff">
	<path class="st2" d="M181.5,67.7c15.5,11.7,26,29.2,31.6,47.6c-2.3,0.9-4.8,1.7-7.3,1.7c-9.5,0.3-19,0.4-28.4-0.1
		c-2.8-0.1-5.5-1.1-8.1-2.1c-0.1,0.2-0.3,0.7-0.4,1c-5.9-11-15.9-19.9-27.7-24.1c-14.4-5.1-31.1-3.8-44.2,4.4
		c-6.4,3.7-11.5,9.1-16.1,14.8c-2.4,1.6-4.3,3.6-6.5,5.4c-3.1,0.8-6.3,0-9.5,0.1c-8.4-0.5-16.9,1-25.2-1c-2.6-0.5-2.8-3.5-3.6-5.5
		C41.4,94,51.1,79.6,64,69.1c1.1,0.8,2,2.2,3.5,2.2c36.5-0.4,73-0.1,109.5-0.2c1.5,0,3.1-0.2,4.6-0.2
		C181.6,69.9,181.6,68.8,181.5,67.7z"/>
</g>
<g id="_x23_d93748ff">
	<path class="st3" d="M33.6,163.3c-3.6-17.6-4.1-36.6,2.7-53.5c0.8,2,1,5,3.6,5.5c8.2,2.1,16.8,0.6,25.2,1c3.1-0.1,6.4,0.7,9.5-0.1
		c2.1-1.8,4.1-3.8,6.5-5.4c-2.8,5.4-5.8,10.7-7.1,16.7c-2.5,10.7-1.7,22.2,2.5,32.3c-0.6,1.4-1.1,2.8-1.7,4.3
		c-3.3,0.1-6.5-0.2-9.8-0.6c-6-0.6-11.9,0.2-17.9-0.4c-4.3-0.3-8.8-1.5-13,0L33.6,163.3z"/>
	<path class="st3" d="M169.3,114.9c2.6,1,5.2,2,8.1,2.1c9.5,0.5,19,0.4,28.4,0.1c2.5,0,4.9-0.8,7.3-1.7c4.6,18.2,4.3,37.8-2.1,55.5
		c-0.3-1.8-0.8-3.7-1.2-5.5c-10.9-0.4-21.9,0-32.8,0c-1.6-0.2-3.4,0.1-4.8-0.9c-0.8-2.1-0.4-4.4-0.3-6.6c1.6-6.2,3.2-12.4,3-18.8
		c-0.1-8.1-2.5-15.9-6-23.2C169,115.6,169.2,115.1,169.3,114.9z"/>
</g>
<g id="_x23_eb4857ff">
	<path class="st4" d="M99.7,139c0.3-10.5,8.3-20.2,18.5-22.5c4.9-0.4,10.1-0.9,14.6,1.3c-1.9,2.1-4.6,4-4.2,7.2
		c-0.5,5,4.6,9.3,9.4,8.5c2.6-1,4.6-2.9,6.9-4.5c6,11,1.4,26.3-9.9,31.9c-6.5,3.5-14.6,3.8-21.3,0.6
		C104.9,157.9,99.2,148.4,99.7,139z"/>
	<path class="st4" d="M145.4,186.4c12.2-5.5,21.4-16.4,26.5-28.6c-0.1,2.2-0.6,4.5,0.3,6.6c1.4,0.9,3.2,0.7,4.8,0.9
		c10.9,0.1,21.9-0.3,32.8,0c0.4,1.8,0.9,3.6,1.2,5.5c-2.9,8.7-7.8,16.6-12.9,24.2c-3.1,4.5-7.1,8.2-11,12.1c-3.1,3-6,6.2-10,7.9
		c1.9-4.5,4.9-8.5,6.9-13c2.3-5.3,5.6-10.2,7.2-15.8c-15.3,22.2-42,36.6-69.1,35.4c-11.9,0.4-23.6-3.4-34.4-8.2
		c-8.1-4.1-15.9-9.2-22.1-15.9c-3.8-3.8-6.8-8.3-10.4-12.4c4,8.5,7.9,17,12.6,25.1c0.9,1.6,1.6,3.2,2.2,4.9
		C52.2,203,39.2,184,34,163.2c4.2-1.5,8.7-0.3,13,0c6,0.6,12-0.2,17.9,0.4c3.2,0.4,6.5,0.6,9.8,0.6c0.6-1.4,1.1-2.8,1.7-4.3
		c5.9,14.1,18.5,25.3,33.2,29.5C121.4,192.4,134.3,191.7,145.4,186.4z"/>
	<path class="st4" d="M83.8,227.2c7.7,2.3,15.2,5.4,23.2,6.5c16.2,2.9,33.1,1.5,48.6-4c2.8-1,5.5-2,8.4-2.5
		c-7.5,8.7-18.8,13.4-29.8,15.7c-13.7,2.3-28.2,0.1-40.2-7C90.2,233.6,86.2,231.2,83.8,227.2z"/>
</g>
</svg>
